icons/issue-draft-24.svg

<svg width="24" height="24" viewBox="0 0 24 24" fill="none" xmlns="http://www.w3.org/2000/svg">
<path fill-rule="evenodd" clip-rule="evenodd" d="M10.1574 1.15376C10.757 1.05259 11.3727 1 12 1C12.6273 1 13.243 1.05259 13.8426 1.15376C14.251 1.22268 14.5262 1.60966 14.4573 2.0181C14.3884 2.42654 14.0014 2.70177 13.593 2.63286C13.0755 2.54554 12.5434 2.5 12 2.5C11.4566 2.5 10.9245 2.54554 10.407 2.63286C9.99856 2.70177 9.61159 2.42654 9.54267 2.0181C9.47375 1.60966 9.74899 1.22268 10.1574 1.15376ZM6.67952 3.20526C6.9195 3.54287 6.84035 4.01111 6.50274 4.25108C5.63203 4.86999 4.86999 5.63203 4.25109 6.50274C4.01111 6.84035 3.54288 6.9195 3.20526 6.67952C2.86765 6.43954 2.7885 5.97131 3.02848 5.6337C3.74463 4.62618 4.62618 3.74463 5.6337 3.02848C5.97131 2.7885 6.43954 2.86765 6.67952 3.20526ZM17.3205 3.20526C17.5605 2.86765 18.0287 2.7885 18.3663 3.02848C19.3738 3.74463 20.2554 4.62618 20.9715 5.6337C21.2115 5.97131 21.1324 6.43954 20.7947 6.67952C20.4571 6.9195 19.9889 6.84035 19.7489 6.50274C19.13 5.63203 18.368 4.86999 17.4973 4.25109C17.1597 4.01111 17.0805 3.54288 17.3205 3.20526ZM2.0181 9.54267C2.42654 9.61159 2.70177 9.99856 2.63286 10.407C2.54554 10.9245 2.5 11.4566 2.5 12C2.5 12.5434 2.54554 13.0755 2.63286 13.593C2.70177 14.0014 2.42654 14.3884 2.0181 14.4573C1.60966 14.5262 1.22268 14.251 1.15376 13.8426C1.05259 13.243 1 12.6273 1 12C1 11.3727 1.05259 10.757 1.15376 10.1574C1.22268 9.74899 1.60966 9.47375 2.0181 9.54267ZM21.9819 9.54267C22.3903 9.47375 22.7773 9.74899 22.8462 10.1574C22.9474 10.757 23 11.3727 23 12C23 12.6273 22.9474 13.243 22.8462 13.8426C22.7773 14.251 22.3903 14.5262 21.9819 14.4573C21.5735 14.3884 21.2982 14.0014 21.3671 13.593C21.4545 13.0755 21.5 12.5434 21.5 12C21.5 11.4566 21.4545 10.9245 21.3671 10.407C21.2982 9.99856 21.5735 9.61159 21.9819 9.54267ZM3.20526 17.3205C3.54287 17.0805 4.01111 17.1596 4.25108 17.4973C4.86999 18.368 5.63203 19.13 6.50274 19.7489C6.84035 19.9889 6.9195 20.4571 6.67952 20.7947C6.43954 21.1324 5.97131 21.2115 5.6337 20.9715C4.62618 20.2554 3.74463 19.3738 3.02848 18.3663C2.7885 18.0287 2.86765 17.5605 3.20526 17.3205ZM20.7947 17.3205C21.1324 17.5605 21.2115 18.0287 20.9715 18.3663C20.2554 19.3738 19.3738 20.2554 18.3663 20.9715C18.0287 21.2115 17.5605 21.1324 17.3205 20.7947C17.0805 20.4571 17.1596 19.9889 17.4973 19.7489C18.368 19.13 19.13 18.368 19.7489 17.4973C19.9889 17.1597 20.4571 17.0805 20.7947 17.3205ZM9.54267 21.9819C9.61159 21.5735 9.99856 21.2982 10.407 21.3671C10.9245 21.4545 11.4566 21.5 12 21.5C12.5434 21.5 13.0755 21.4545 13.593 21.3671C14.0014 21.2982 14.3884 21.5735 14.4573 21.9819C14.5262 22.3903 14.251 22.7773 13.8426 22.8462C13.243 22.9474 12.6273 23 12 23C11.3727 23 10.757 22.9474 10.1574 22.8462C9.74899 22.7773 9.47375 22.3903 9.54267 21.9819Z" fill="black"/>
</svg>

<svg xmlns="http://www.w3.org/2000/svg" width="24" height="24" viewBox="0 0 24 24"><path fill-rule="evenodd" d="M10.157 1.154a11.07 11.07 0 013.686 0 .75.75 0 01-.25 1.479 9.568 9.568 0 00-3.186 0 .75.75 0 01-.25-1.48zM6.68 3.205a.75.75 0 01-.177 1.046A9.558 9.558 0 004.25 6.503a.75.75 0 01-1.223-.87 11.058 11.058 0 012.606-2.605.75.75 0 011.046.177zm10.64 0a.75.75 0 011.046-.177 11.058 11.058 0 012.605 2.606.75.75 0 11-1.222.869 9.558 9.558 0 00-2.252-2.252.75.75 0 01-.177-1.046zM2.018 9.543a.75.75 0 01.615.864 9.568 9.568 0 000 3.186.75.75 0 01-1.48.25 11.07 11.07 0 010-3.686.75.75 0 01.865-.614zm19.964 0a.75.75 0 01.864.614 11.066 11.066 0 010 3.686.75.75 0 01-1.479-.25 9.56 9.56 0 000-3.186.75.75 0 01.615-.864zM3.205 17.32a.75.75 0 011.046.177 9.558 9.558 0 002.252 2.252.75.75 0 11-.87 1.223 11.058 11.058 0 01-2.605-2.606.75.75 0 01.177-1.046zm17.59 0a.75.75 0 01.176 1.046 11.057 11.057 0 01-2.605 2.605.75.75 0 11-.869-1.222 9.558 9.558 0 002.252-2.252.75.75 0 011.046-.177zM9.543 21.982a.75.75 0 01.864-.615 9.56 9.56 0 003.186 0 .75.75 0 01.25 1.48 11.066 11.066 0 01-3.686 0 .75.75 0 01-.614-.865z"/></svg>
